X: 28639
T: Music On The Wind
R: jig
M: 6/8
K: Dmixolydian
A2G ABc|E2D DE/F/G|A2A Bcd|egB BAG|
A2G ABc|E2D DE/F/G|AGE G2E|D3 D3:|
A2A Bcd|e2f g2e|a2f g2e|d2B BAG|
A2A Bcd|e2f g2e|afe def|e3 efg|
a2f g2e|d2d efg|a2f g2e|d2B BAG|
A2A Bcd|egB BAG|AGE G2E|D3 D3||

